PortableApps/LibreOfficePortable/App/libreoffice/help/media/icon-themes/cmd/lc_solverdialog.svg

<svg viewBox="0 0 24 24" xmlns="http://www.w3.org/2000/svg"><path d="m12 2a10 10 0 0 0 -10 10 10 10 0 0 0 10 10 10 10 0 0 0 2.089844-.232422c-.680999-.915634-1.089844-2.045082-1.089844-3.267578 0-3.025721 2.474279-5.5 5.5-5.5 1.22501 0 2.356815.410209 3.273438 1.09375a10 10 0 0 0 .226562-2.09375 10 10 0 0 0 -10-10z" fill="#808080"/><path d="m12 4.9999998c-2.21 0-4 1.79-4 4h2c0-1.1.9-2 2-2s2 .9 2 2c0 .55-.219844 1.0501562-.589844 1.4101562l-1.240234 1.259766c-.72.73-1.169922 1.730078-1.169922 2.830078v.5h2c0-1.5.449922-2.100078 1.169922-2.830078l.90039-.919922c.57-.57.929688-1.3700002.929688-2.2500002 0-2.21-1.79-4-4-4zm-1 13.0000002v2h2v-2z" fill="#fff"/><path d="m18.5 14a4.5 4.5 0 0 0 -4.5 4.5 4.5 4.5 0 0 0 4.5 4.5 4.5 4.5 0 0 0 4.5-4.5 4.5 4.5 0 0 0 -4.5-4.5zm0 1a3.5 3.5 0 0 1 3.5 3.5 3.5 3.5 0 0 1 -3.5 3.5 3.5 3.5 0 0 1 -3.5-3.5 3.5 3.5 0 0 1 3.5-3.5z" fill="#4d82b8"/><circle cx="18.5" cy="18.5" fill="#fff" r="3.5"/><path d="m17 21 4-2.5-4-2.5z" fill="#4d82b8"/></svg>

<svg viewBox="0 0 24 24" xmlns="http://www.w3.org/2000/svg">
  <path
     style="fill:#808080"
     d="M 12 2 A 10 10 0 0 0 2 12 A 10 10 0 0 0 12 22 A 10 10 0 0 0 14.089844 21.767578 C 13.408845 20.851944 13 19.722496 13 18.5 C 13 15.474279 15.474279 13 18.5 13 C 19.72501 13 20.856815 13.410209 21.773438 14.09375 A 10 10 0 0 0 22 12 A 10 10 0 0 0 12 2 z "
     id="circle2" />
  <path
     d="m 12,4.9999998 c -2.21,0 -4,1.79 -4,4 h 2 c 0,-1.1 0.9,-2 2,-2 1.1,0 2,0.9 2,2 0,0.55 -0.219844,1.0501562 -0.589844,1.4101562 l -1.240234,1.259766 C 11.449922,12.399922 11,13.4 11,14.5 V 15 h 2 c 0,-1.5 0.449922,-2.100078 1.169922,-2.830078 L 15.070312,11.25 C 15.640312,10.68 16,9.8799998 16,8.9999998 c 0,-2.21 -1.79,-4 -4,-4 z M 11,18 v 2 h 2 v -2 z"
     style="fill:#ffffff" />
  <path
     style="fill:#4d82b8"
     d="M 18.5,14 A 4.5,4.5 0 0 0 14,18.5 4.5,4.5 0 0 0 18.5,23 4.5,4.5 0 0 0 23,18.5 4.5,4.5 0 0 0 18.5,14 Z m 0,1 A 3.5,3.5 0 0 1 22,18.5 3.5,3.5 0 0 1 18.5,22 3.5,3.5 0 0 1 15,18.5 3.5,3.5 0 0 1 18.5,15 Z"
     />
  <circle
     style="fill:#ffffff"
     cx="18.5"
     cy="18.5"
     r="3.5"
     />
  <path
     style="fill:#4d82b8"
     d="M 17,21 21,18.5 17,16 Z"
     />
</svg>
